source/img/logo-mobile.svg

<svg xmlns="http://www.w3.org/2000/svg" width="35" height="38" fill="none"><g clip-path="url(#a)"><path fill="#FDC305" d="M6.91078 20.72v-2.26c6.68362-.9177 13.42372-1.3621 20.17002-1.33 0 .6 0 1.21-.06 1.82 1.9176-.851 3.9328-1.4623 6-1.82-1.3175-3.408-3.7183-6.2888-6.8329-8.19914-3.1147-1.91035-6.7707-2.74446-10.4057-2.37403-3.635.37043-7.04764 1.92489-9.71291 4.42427-2.66527 2.4993-4.43555 5.8052-5.03851 9.4089l5.88.33ZM28.0808 24.23c-1.16 1.28-1.39 1.2-1.39 3.45v9.18c2.2925-1.514 4.1745-3.5721 5.478-5.9906 1.3034-2.4185 1.9878-5.122 1.992-7.8694-.0132-1.0409-.1203-2.0784-.32-3.1-2.0718 1.2295-4.0033 2.6814-5.76 4.33ZM7.20077 25.72s-3.79-1.44-5.19-1.83c-.38293-.1207-.7739-.2143-1.169995-.28.108395 2.886.965585 5.6941 2.487385 8.1486 1.5218 2.4545 3.65587 4.471 6.19261 5.8514l-2.32-11.89Z"/><path fill="#F06351" d="M27.1308 17.12c.0406-5.5214-.428-11.03471-1.4-16.469996 0 0-.14-1.29-.89-.24-.5891 1.248136-.9934 2.575396-1.2 3.939996a70.3405566 70.3405566 0 0 0-12.77.34C10.0808 2 8.69078.750004 8.02078 1c-.67.25-.72 3.31-.72 3.31l-.33 14.1c6.68122-.904 13.41802-1.3351 20.16002-1.29Z"/><path fill="#000" d="M13.2508 14c0-.09 1 .68 1.41.92.41.24.61.42.61.59 0 .17-.27.34-.63.34s-.91-.12-1-.27h1.23c-.6093-.4506-1.1543-.9822-1.62-1.58ZM20.7308 14.11l-1.09 1.33c0 .06-.17.35.18.3.4142-.0617.8223-.1588 1.22-.29.11 0 .07-.19-.11-.17-.18.02-.69.05-1 .11l.84-1.26s.07-.13-.04-.02ZM17.5908 20.2c.4635-.2042.8467-.5557 1.09-1 .28-.65 0-.91-.44-1-.6021-.1098-1.2235.0116-1.74.34-.39.36-.34.72-.05 1 .3513.2662.7342.4879 1.14.66Z"/><path fill="#F06351" d="M17.1908 21.45c-.1121.2285-.2684.4325-.46.6-.2848.2291-.6349.3622-1 .38-.5262.042-1.0494-.1111-1.47-.43-.1978-.1192-.3764-.2676-.53-.44-.1005-.1109-.2232-.1995-.36-.26 0 0 .75 4.1 2.57 4.75 1.82.65 2.14-.75 2.2-1.13.0601-1.1349-.2258-2.2612-.82-3.23-.02-.31-.03-.11-.13-.24Z"/><path fill="#000" d="M15.5508 22.59c-.4647-.0653-.9111-.2249-1.3118-.4691-.4007-.2442-.7472-.5678-1.0182-.9509-.0133-.013-.0239-.0286-.0311-.0458-.0072-.0171-.0109-.0356-.0109-.0542s.0037-.0371.0109-.0542c.0072-.0172.0178-.0328.0311-.0458.013-.0133.0286-.0239.0457-.0311.0172-.0072.0356-.0109.0543-.0109.0186 0 .037.0037.0542.0109s.0327.0178.0458.0311c.5047.6942 1.2629 1.1613 2.11 1.3.3316-.025.6526-.1287.9361-.3026.2835-.174.5213-.413.6939-.6974l.14-.19.1.21s.37.76 1 .8c.63.04 1.05-.41 1.61-1.28.013-.0133.0286-.0239.0457-.0311.0172-.0072.0356-.0109.0543-.0109.0186 0 .037.0037.0542.0109s.0327.0178.0458.0311c.0323.0206.0555.0529.0648.09.0093.0372.004.0766-.0148.11-.64 1-1.27 1.44-1.88 1.4-.232-.0337-.4534-.1197-.6474-.2513-.194-.1316-.3556-.3056-.4726-.5087-.1967.2745-.4524.5014-.7483.6641-.296.1626-.6246.2569-.9617.2759Z"/><path fill="#F06351" d="M27.0808 18.92c-1.7956 1.6237-3.4888 3.357-5.07 5.19-1.5714 1.8261-3.3462 3.4668-5.29 4.89-.22-.53-1.62-1.51-1.62-1.51s-3.13-2.14-5.18002-3.82c-1.10586-.9327-2.15131-1.9347-3.13-3l-2-.11c2.89017 4.2055 7.12022 7.3076 12.00002 8.8.86-.14 3.27-1.86 5.07-3.26 2.1189-1.8181 4.104-3.7866 5.94-5.89.5025-.589.8892-1.2675 1.14-2-1.1.39-1.86.71-1.86.71Z"/></g><defs><clipPath id="a"><path fill="#fff" d="M.840775 0h33.32v37.61h-33.32z"/></clipPath></defs></svg>

<svg width="35" height="38" viewBox="0 0 35 38" fill="none" xmlns="http://www.w3.org/2000/svg">
<g clip-path="url(#clip0_153_300)">
<path d="M6.91078 20.72V18.46C13.5944 17.5423 20.3345 17.0979 27.0808 17.13C27.0808 17.73 27.0808 18.34 27.0208 18.95C28.9384 18.099 30.9536 17.4877 33.0208 17.13C31.7033 13.722 29.3025 10.8412 26.1879 8.93086C23.0732 7.02051 19.4172 6.1864 15.7822 6.55683C12.1472 6.92726 8.73456 8.48172 6.06929 10.9811C3.40402 13.4804 1.63374 16.7863 1.03078 20.39L6.91078 20.72Z" fill="#FDC305"/>
<path d="M28.0808 24.23C26.9208 25.51 26.6908 25.43 26.6908 27.68C26.6908 28.59 26.6908 32.58 26.6908 36.86C28.9833 35.346 30.8653 33.2879 32.1688 30.8694C33.4722 28.4509 34.1566 25.7474 34.1608 23C34.1476 21.9591 34.0405 20.9216 33.8408 19.9C31.769 21.1295 29.8375 22.5814 28.0808 24.23Z" fill="#FDC305"/>
<path d="M7.20077 25.72C7.20077 25.72 3.41077 24.28 2.01077 23.89C1.62784 23.7693 1.23687 23.6757 0.840775 23.61C0.94917 26.496 1.80636 29.3041 3.32816 31.7586C4.84996 34.2131 6.98403 36.2296 9.52077 37.61L7.20077 25.72Z" fill="#FDC305"/>
<path d="M27.1308 17.12C27.1714 11.5986 26.7028 6.08529 25.7308 0.650004C25.7308 0.650004 25.5908 -0.639996 24.8408 0.410004C24.2517 1.65814 23.8474 2.9854 23.6408 4.35C19.3826 4.07577 15.1083 4.18958 10.8708 4.69C10.0808 2 8.69078 0.750004 8.02078 1C7.35078 1.25 7.30078 4.31 7.30078 4.31L6.97078 18.41C13.652 17.506 20.3888 17.0749 27.1308 17.12V17.12Z" fill="#F06351"/>
<path d="M13.2508 14C13.2508 13.91 14.2508 14.68 14.6608 14.92C15.0708 15.16 15.2708 15.34 15.2708 15.51C15.2708 15.68 15.0008 15.85 14.6408 15.85C14.2808 15.85 13.7308 15.73 13.6408 15.58H14.5808H14.8708C14.2615 15.1294 13.7165 14.5978 13.2508 14V14Z" fill="black"/>
<path d="M20.7308 14.11L19.6408 15.44C19.6408 15.5 19.4708 15.79 19.8208 15.74C20.235 15.6783 20.6431 15.5812 21.0408 15.45C21.1508 15.45 21.1108 15.26 20.9308 15.28C20.7508 15.3 20.2408 15.33 19.9308 15.39L20.7708 14.13C20.7708 14.13 20.8408 14 20.7308 14.11Z" fill="black"/>
<path d="M17.5908 20.2C18.0543 19.9958 18.4375 19.6443 18.6808 19.2C18.9608 18.55 18.6808 18.29 18.2408 18.2C17.6387 18.0902 17.0173 18.2116 16.5008 18.54C16.1108 18.9 16.1608 19.26 16.4508 19.54C16.8021 19.8062 17.185 20.0279 17.5908 20.2V20.2Z" fill="black"/>
<path d="M17.1908 21.45C17.0787 21.6785 16.9224 21.8825 16.7308 22.05C16.446 22.2791 16.0959 22.4122 15.7308 22.43C15.2046 22.472 14.6814 22.3189 14.2608 22C14.063 21.8808 13.8844 21.7324 13.7308 21.56C13.6303 21.4491 13.5076 21.3605 13.3708 21.3C13.3708 21.3 14.1208 25.4 15.9408 26.05C17.7608 26.7 18.0808 25.3 18.1408 24.92C18.2009 23.7851 17.915 22.6588 17.3208 21.69C17.3008 21.38 17.2908 21.58 17.1908 21.45Z" fill="#F06351"/>
<path d="M15.5508 22.59C15.0861 22.5247 14.6397 22.3651 14.239 22.1209C13.8383 21.8767 13.4918 21.5531 13.2208 21.17C13.2075 21.157 13.1969 21.1414 13.1897 21.1242C13.1825 21.1071 13.1788 21.0886 13.1788 21.07C13.1788 21.0514 13.1825 21.0329 13.1897 21.0158C13.1969 20.9986 13.2075 20.983 13.2208 20.97C13.2338 20.9567 13.2494 20.9461 13.2665 20.9389C13.2837 20.9317 13.3021 20.928 13.3208 20.928C13.3394 20.928 13.3578 20.9317 13.375 20.9389C13.3922 20.9461 13.4077 20.9567 13.4208 20.97C13.9255 21.6642 14.6837 22.1313 15.5308 22.27V22.27C15.8624 22.245 16.1834 22.1413 16.4669 21.9674C16.7504 21.7934 16.9882 21.5544 17.1608 21.27L17.3008 21.08L17.4008 21.29C17.4008 21.29 17.7708 22.05 18.4008 22.09C19.0308 22.13 19.4508 21.68 20.0108 20.81C20.0238 20.7967 20.0394 20.7861 20.0565 20.7789C20.0737 20.7717 20.0921 20.768 20.1108 20.768C20.1294 20.768 20.1478 20.7717 20.165 20.7789C20.1822 20.7861 20.1977 20.7967 20.2108 20.81C20.2431 20.8306 20.2663 20.8629 20.2756 20.9C20.2849 20.9372 20.2796 20.9766 20.2608 21.01C19.6208 22.01 18.9908 22.45 18.3808 22.41C18.1488 22.3763 17.9274 22.2903 17.7334 22.1587C17.5394 22.0271 17.3778 21.8531 17.2608 21.65C17.0641 21.9245 16.8084 22.1514 16.5125 22.3141C16.2165 22.4767 15.8879 22.571 15.5508 22.59V22.59Z" fill="black"/>
<path d="M27.0808 18.92C25.2852 20.5437 23.592 22.277 22.0108 24.11C20.4394 25.9361 18.6646 27.5768 16.7208 29C16.5008 28.47 15.1008 27.49 15.1008 27.49C15.1008 27.49 11.9708 25.35 9.92078 23.67C8.81492 22.7373 7.76947 21.7353 6.79078 20.67L4.79078 20.56C7.68095 24.7655 11.911 27.8676 16.7908 29.36C17.6508 29.22 20.0608 27.5 21.8608 26.1C23.9797 24.2819 25.9648 22.3134 27.8008 20.21C28.3033 19.621 28.69 18.9425 28.9408 18.21C27.8408 18.6 27.0808 18.92 27.0808 18.92Z" fill="#F06351"/>
</g>
<defs>
<clipPath id="clip0_153_300">
<rect width="33.32" height="37.61" fill="white" transform="translate(0.840775)"/>
</clipPath>
</defs>
</svg>
